img/icons/editDate.svg

<svg width="25" height="24" viewBox="0 0 25 24" fill="none" xmlns="http://www.w3.org/2000/svg">
<path d="M4.5 20.0001H3.75C3.75 20.4143 4.08579 20.7501 4.5 20.7501V20.0001ZM20.5 20.7501C20.9142 20.7501 21.25 20.4143 21.25 20.0001C21.25 19.5859 20.9142 19.2501 20.5 19.2501V20.7501ZM4.5 16.0001L3.96967 15.4698C3.82902 15.6104 3.75 15.8012 3.75 16.0001H4.5ZM15.3686 5.13146L14.8383 4.60113L14.8383 4.60113L15.3686 5.13146ZM17.6313 5.13146L17.101 5.66179V5.66179L17.6313 5.13146ZM19.3686 6.86872L19.8989 6.33839V6.33839L19.3686 6.86872ZM19.3686 9.13146L18.8383 8.60113V8.60113L19.3686 9.13146ZM8.5 20.0001L8.5 20.7501C8.69892 20.7501 8.88968 20.6711 9.03033 20.5304L8.5 20.0001ZM20.0369 7.69112L20.7502 7.45936V7.45936L20.0369 7.69112ZM20.0369 8.30908L19.3236 8.07731L20.0369 8.30908ZM16.191 4.46325L15.9592 3.74996L16.191 4.46325ZM16.8091 4.46325L17.0408 3.74996L16.8091 4.46325ZM13.0303 7.46979C12.7374 7.17689 12.2626 7.17689 11.9697 7.46979C11.6768 7.76268 11.6768 8.23755 11.9697 8.53045L13.0303 7.46979ZM15.9697 12.5304C16.2626 12.8233 16.7374 12.8233 17.0303 12.5304C17.3232 12.2376 17.3232 11.7627 17.0303 11.4698L15.9697 12.5304ZM4.5 20.7501H20.5V19.2501H4.5V20.7501ZM5.25 20.0001V16.0001H3.75V20.0001H5.25ZM5.03033 16.5304L15.899 5.66179L14.8383 4.60113L3.96967 15.4698L5.03033 16.5304ZM17.101 5.66179L18.8383 7.39905L19.8989 6.33839L18.1617 4.60113L17.101 5.66179ZM18.8383 8.60113L7.96967 19.4698L9.03033 20.5304L19.899 9.66179L18.8383 8.60113ZM8.5 19.2501L4.5 19.2501L4.5 20.7501L8.5 20.7501L8.5 19.2501ZM18.8383 7.39905C19.045 7.60581 19.1678 7.72941 19.2517 7.82819C19.3299 7.92029 19.3293 7.9404 19.3236 7.92288L20.7502 7.45936C20.6703 7.21351 20.5336 7.02043 20.3952 6.85742C20.2625 6.70108 20.0882 6.52765 19.8989 6.33839L18.8383 7.39905ZM19.899 9.66179C20.0882 9.47253 20.2625 9.2991 20.3952 9.14277C20.5336 8.97974 20.6703 8.78667 20.7502 8.54084L19.3236 8.07731C19.3293 8.05981 19.3298 8.07992 19.2517 8.17201C19.1678 8.27078 19.0451 8.39438 18.8383 8.60113L19.899 9.66179ZM19.3236 7.92288C19.3399 7.9731 19.3399 8.0271 19.3236 8.07731L20.7502 8.54084C20.8644 8.18936 20.8644 7.81083 20.7502 7.45936L19.3236 7.92288ZM15.899 5.66179C16.1057 5.45504 16.2293 5.33228 16.3281 5.24844C16.4201 5.17028 16.4403 5.17086 16.4228 5.17654L15.9592 3.74996C15.7134 3.82983 15.5204 3.96651 15.3573 4.1049C15.201 4.23762 15.0276 4.41187 14.8383 4.60113L15.899 5.66179ZM18.1617 4.60113C17.9725 4.41191 17.799 4.23765 17.6428 4.10496C17.4798 3.96657 17.2867 3.82984 17.0408 3.74996L16.5773 5.17654C16.5598 5.17084 16.5798 5.17022 16.6719 5.24839C16.7707 5.33225 16.8942 5.455 17.101 5.66179L18.1617 4.60113ZM16.4228 5.17654C16.473 5.16023 16.5271 5.16023 16.5773 5.17654L17.0408 3.74996C16.6894 3.63576 16.3107 3.63576 15.9592 3.74996L16.4228 5.17654ZM11.9697 8.53045L15.9697 12.5304L17.0303 11.4698L13.0303 7.46979L11.9697 8.53045Z" fill="#8C8D92"/>
</svg>

<svg width="25" height="24" fill="none" xmlns="http://www.w3.org/2000/svg"><path d="M4.5 20h-.75c0 .414.336.75.75.75V20Zm16 .75a.75.75 0 0 0 0-1.5v1.5ZM4.5 16l-.53-.53a.75.75 0 0 0-.22.53h.75ZM15.369 5.131l-.53-.53.53.53Zm2.262 0-.53.53.53-.53ZM19.37 6.87l.53-.53-.53.53Zm0 2.262-.53-.53.53.53ZM8.5 20.001v.75a.75.75 0 0 0 .53-.22L8.5 20ZM20.037 7.69l.713-.232-.713.232Zm0 .618-.713-.232.713.232ZM16.19 4.463l-.232-.713.232.713Zm.618 0 .232-.713-.232.713ZM13.03 7.47a.75.75 0 1 0-1.06 1.06l1.06-1.06Zm2.94 5.06a.75.75 0 1 0 1.06-1.06l-1.06 1.06ZM4.5 20.75h16v-1.5h-16v1.5Zm.75-.75v-4h-1.5v4h1.5Zm-.22-3.47L15.9 5.662l-1.06-1.06L3.968 15.47l1.061 1.06ZM17.101 5.662l1.737 1.737 1.06-1.06L18.163 4.6 17.1 5.661Zm1.737 2.94L7.97 19.47l1.06 1.06L19.9 9.662l-1.06-1.06ZM8.5 19.25h-4v1.5h4v-1.5ZM18.838 7.4c.207.207.33.33.414.43.078.091.077.111.072.094l1.426-.464a1.774 1.774 0 0 0-.355-.602 9.676 9.676 0 0 0-.496-.519L18.839 7.4ZM19.9 9.662c.19-.19.363-.363.496-.52a1.75 1.75 0 0 0 .355-.601l-1.426-.464c.005-.017.006.003-.072.095a8.342 8.342 0 0 1-.414.43l1.061 1.06Zm-.575-1.74a.25.25 0 0 1 0 .155l1.426.464a1.75 1.75 0 0 0 0-1.082l-1.426.464ZM15.9 5.662c.207-.207.33-.33.43-.414.091-.078.111-.077.094-.071L15.96 3.75c-.246.08-.439.217-.602.355-.156.133-.33.307-.519.496l1.061 1.06Zm2.263-1.06c-.19-.19-.363-.364-.52-.497a1.774 1.774 0 0 0-.601-.355l-.464 1.427c-.017-.006.003-.007.095.071.099.084.222.207.429.414l1.06-1.06Zm-1.74.575a.25.25 0 0 1 .155 0l.464-1.427a1.75 1.75 0 0 0-1.082 0l.464 1.427ZM11.97 8.53l4 4 1.06-1.06-4-4-1.06 1.06Z" fill="#8C8D92"/></svg>
